images/dark/server.svg

<svg height="16" viewBox="0 0 16 16" width="16" xmlns="http://www.w3.org/2000/svg"><path d="m3.5 2c-.828 0-1.5.672-1.5 1.5s.672 1.5 1.5 1.5h9c.828 0 1.5-.672 1.5-1.5s-.672-1.5-1.5-1.5z" fill="#646465"/><g fill="#c5c5c5"><path d="m3.5 2c-.828 0-1.5.672-1.5 1.5s.672 1.5 1.5 1.5h9c.828 0 1.5-.672 1.5-1.5s-.672-1.5-1.5-1.5z"/><path d="m3.5 6c-.828 0-1.5.672-1.5 1.5s.672 1.5 1.5 1.5h9c.828 0 1.5-.672 1.5-1.5s-.672-1.5-1.5-1.5z"/><path d="m3.5 10c-.828 0-1.5.672-1.5 1.5s.672 1.5 1.5 1.5h9c.828 0 1.5-.672 1.5-1.5s-.672-1.5-1.5-1.5z"/></g></svg>

<?xml version="1.0" encoding="UTF-8"?>
<svg width="16px" height="16px" viewBox="0 0 16 16" xmlns="http://www.w3.org/2000/svg" xmlns:xlink="http://www.w3.org/1999/xlink" version="1.1">
 <path id="path" d="M3.5 2 C2.672 2 2 2.672 2 3.5 2 4.328 2.672 5 3.5 5 L12.5 5 C13.328 5 14 4.328 14 3.5 14 2.672 13.328 2 12.5 2 Z" fill="#646465" fill-opacity="1" stroke="none"/>
 <path id="path-1" d="M3.5 2 C2.672 2 2 2.672 2 3.5 2 4.328 2.672 5 3.5 5 L12.5 5 C13.328 5 14 4.328 14 3.5 14 2.672 13.328 2 12.5 2 Z" fill="#c5c5c5" fill-opacity="1" stroke="none"/>
 <path id="path-2" d="M3.5 6 C2.672 6 2 6.672 2 7.5 2 8.328 2.672 9 3.5 9 L12.5 9 C13.328 9 14 8.328 14 7.5 14 6.672 13.328 6 12.5 6 Z" fill="#c5c5c5" fill-opacity="1" stroke="none"/>
 <path id="path-3" d="M3.5 10 C2.672 10 2 10.672 2 11.5 2 12.328 2.672 13 3.5 13 L12.5 13 C13.328 13 14 12.328 14 11.5 14 10.672 13.328 10 12.5 10 Z" fill="#c5c5c5" fill-opacity="1" stroke="none"/>
</svg>
